X:1
T:Misso Herodes - Palestrina
T:#
%%score [ 1 2 3 4 ]
L:1/8
Q:1/4=200
M:none
K:F
V:1 treble nm="Soprano" snm="S"
V:2 treble nm="Alto" snm="A"
V:3 treble-8 nm="Tenor" snm="T"
V:4 bass nm="Bass" snm="B"
V:1
"^Misso Herodes""^G. P. da Palestrina\n(1526-94)" z16 | z16 | d16 | d8 c8 | (f6 e2 d2 c2 d4- | %5
w: ||Mis-|so He-|ro\- * * * *|
 d2 c2 A4 B8) |[M:4/2] A16 | z4 c4 d6 e2 | (f4 e6 d2 d4 | d4 c4 d6 c2 | B2 A2 G2 A2 B2 c2 d4- | %11
w: |des|spi- cu- la-|to\- * * *|||
 d2 c2 B8 A4) | B4 F4 G6 A2 | B4 A4 z8 | z16 | z4 c4 d6 e2 | (f4 e6 d2 d4-) | (d4 ^c4) d8- | %18
w: |re, spi- cu- la-|to- re,||spi- cu- la-|to\- * * *|* * re|
 d8 z8 | z16 | z16 | A8 d8- | d4 d4 e4 f4 | g8 f4 d4 | e4 f4 g8 | f12 e4 | (d4 c6 B2 B2 AG | %27
w: |||prae- ce\-|* pit am- pu-|ta- ri ca-|put Jo- an-|nis Ba-|pti\- * * * * *|
 A8) G8 | z16 | z16 | z16 | z16 | z4 A4 B4 c4 | d8 c4 c4 | f8 e8 | (d6 cB A4) (B4- | %36
w: * stae,|||||ca- put Jo-|an- nis Ba-|pti- stae|in * * * car\-|
 B2 A2 G8) ^F4 | G8 z4 d4- | d4 d4 f8 | e4 c4 d6 d2 | d4 (f4 e4 d4-) | (d2 c2 A4 B8) | A16 | %43
w: * * * ce-|re: quo|* au- di-|to, di- sci- pu-|li e\- * *||ius,|
 z4 (f6 e2 c4 | d4 e6 d2 d4- | d4 c4 A4 B4- | B2 A2 B2 c2 d8) | c16- | c8 z8 | z8 z4 d4- | %50
w: e\- * *||||ius,||quo|
 d4 d4 f8 | e4 c4 d6 d2 | d4 (f8 e4) | (d4 c4 d4 f4- | f2 e2 d6 c2 B2 A2) | G8 z8 | z16 | z16 | %58
w: * au- di-|to, di- sci- pu-|li e\- *|||ius|||
 z16 | z8 z4 G4- | G4 c8 c4 | c4 c4 d8- | d4 B4 c8- | c4 B4 A8 | G8 z8 | z8 G8 | c6 B2 c4 A4 | %67
w: |ve\-|* ne- runt,|et tu- le\-|* runt cor\-|* pus e-|ius,|et|po- su- e- runt|
 (B4 d6 c2 B2 A2 | B4 c2 B2 A2 G2 F2 E2 | F4 G4 A8) | G16 | z16 | z8 z4 d4 | c4 A4 (c8 | %74
w: il\- * * * *|||lud||in|mo- nu- men\-|
 B8) A4 d4 | c4 A4 (B4 A4- | A2 G2 G8 ^F4) | (G2 A2 B2 c2 d8) | z16 | g8 f4 d4 | (f12 e4 | %81
w: * to, in|mo- nu- men\- *||to, * * * *||in mo- nu-|men\- *|
 d6 c2 B4 A2 G2) | (F4 G8 ^F4) | G16- |[Q:1/4=191] G16 |[Q:1/4=177] G16 |[Q:1/4=170] G16 |] %87
w: ||to.||||
V:2
 G16 | G8 F8 | (B6 A2 G2 F2 G4- | G2 F2 D4 E8) | D4 F4 G6 A2 | (B4 A6 G2 G4-) | %6
w: Mis-|so He-|ro- * * * *||des spi- cu- la-|to\- * * *|
[M:4/2] (G2 F2 F2 ED E4) A,4 | A8 A8- | A4 A4 (G2 F2 F2 ED | E8) D4 G,4 | B,6 C2 (D4 G,2 A,2 | %11
w: * * * * * * re,|spi- cu\-|* la- to\- * * * *|* re, spi-|cu- la- to\- * *|
 B,2 C2 D2 B,2 C8) | B,8 z8 | z4 F4 G6 A2 | (B4 A6 G2 G4- | G4 F6 E2 D4- | D4 C4 F4 E2 D2) | %17
w: |re,|spi- cu- la-|to\- * * *|||
 E8 D4 A4 | B6 A2 (G4 F4- | F4 E4) (F6 G2 | A8) z8 | z16 | z8 z4 D4 | G4 G4 A4 B4 | c8 B4 G4 | %25
w: * re, spi-|cu- la- to\- *|* * re *|||prae-|ce- pit am- pu-|ta- ri ca-|
 A4 B4 c8 | B4 (A6 G2 G4- | G4 F4) (B6 A2 | G4 F8 E4) | (F6 G2 A8) | z8 z4 D4 | E4 F4 G8 | %32
w: put Jo- an-|nis Ba\- * *|* * pti\- *||stae, * *|ca-|put Jo- an-|
 F4 E4 (G4 A4- | A4 G4) A8- | A8 z4 E4 | (G4 F6 E2 D2 C2 | D4) _E4 D8 | z4 G8 G4 | B8 A4 F4 | %39
w: nis Ba- pti\- *|* * stae|* in|car\- * * * *|* ce- re:|quo au-|di- to, di-|
 G6 G2 G4 (B4- | B2 A2 F4 G8) | D8 z4 B,4 | D6 D2 C4 (E4 | F2 G2 A2 F2 B4 A4- | %44
w: sci- pu- li e\-||ius, di-|sci- pu- li e\-||
 A2 G2 G4 F4 E2 D2) | E4 (E4 F4 G4- | G4 F2 E2 D2 E2 F2 G2) | A16 | z16 | z4 G8 G4 | B8 A4 F4 | %51
w: |ius, e\- * *||ius,||quo au-|di- to, di-|
 G6 G2 G4 (B4- | B2 A2 F4 G8) | A8 D8- | D8 z8 | z8 C8 | F12 F4 | F4 F4 G8 | E8 F8- | F4 E4 D8 | %60
w: sci- pu- li e\-||* ius||ve-|ne- runt,|et tu- le-|runt cor\-|* pus e-|
 E4 G4 A8- | A4 A4 A4 A4 | B4 G8 A4- | A4 G8 ^F4 | G16 | z16 | z16 | z4 D4 G6 F2 | G4 E4 (F4 A4- | %69
w: ius, ve- ne\-|* runt, et tu-|le- runt cor\-|* pus e-|ius,|||et po- su-|e- runt il\- *|
 A4 G8 ^F4) | G8 z8 | D8 G6 F2 | G4 E4 (F4 D4 | F8) E4 E4 | D4 (D6 E2 F2 G2) | (A6 G2 F4 E4 | %76
w: |lud,|et po- su-|e- runt il\- *|* lud in|mo- nu\- * * *|men\- * * *|
 D4 E4 C8) | D8 z4 D4- | D4 C4 A,4 (B,4 | G,6 A,2 B,4 A,2 G,2 | A,4 B,4 C8 | A,8) D8- | D8 z4 D4 | %83
w: |to, in|* mo- nu- men\-|||* to,|* in|
 B,4 G,4 (G6 F2 | _E4 D4 C4 B,4 | C4 D4 _E8) | D16 |] %87
w: mo- nu- men\- *|||to.|
V:3
 z16 | z16 | z16 | z16 | z16 | d16 |[M:4/2][K:treble-8] d8 c8 | (f6 e2 d2 c2 d4- | d2 c2 A4 B8) | %9
w: |||||Mis-|so He-|ro\- * * * *||
 A4 A4 B6 c2 | d8 (G2 A2 B2 c2 | d8) z8 | d16 | d8 c8 | (f6 e2 d2 c2 d4- | d2 c2 A4 B8) | A8 z8 | %17
w: des spi- cu- la-|to- re, * * *||mis-|so He-|ro\- * * * *||des,|
 A8 d8- | d4 d4 e4 f4 | g8 f4 d4 | e4 f4 g8 | f4 (d2 e2 f2 d2 g4- | g4) (f4 e4 d4-) | %23
w: prae- ce\-|* pit am- pu-|ta- ri ca-|put Jo- an-|nis Ba\- * * * *|* pti\- * *|
 (d2 c2 c2 B2 d6 cB | A8 G8) | d8 z8 | z8 G8 | d12 d4 | e4 f4 g8 | f4 d4 e4 f4 | g8 f8 | %31
w: ||stae,|prae-|ce- pit|am- pu- ta-|ri ca- put Jo-|an- nis|
 (e4 d8 c2 B2 | c8) d4 (f4- | f4 e2 d2 f4 e4) | d8 A8 | z4 (d6 c2 B2 A2 | B4 c4) A4 A4 | G16 | %38
w: Ba- pti\- * *|* stae, Ba\-||pti- stae|in * * *|* * car- ce-|re:|
 z16 | z16 | z16 | z4 d8 d4 | f8 e4 c4 | d6 d2 (d4 f4- | f2 e2 c4 d8 | A8) d8 | z4 d8 d4 | %47
w: |||quo au-|dito, di- sci-|pu- li e\- *||* ius,|quo au-|
 f8 e4 c4 | e6 e2 e4 (g4- | g2 f2 e2 d2 e4 d2 c2 | d4 B4 c4 d4 | c8) G8 | z8 c8 | f12 f4 | %54
w: di- to, di-|sci- pu- li e\-|||* ius|ve-|ne- runt,|
 f4 f4 g8 | e12 (f4- | f2 e2 d2 c2 d4 c2 B2 | c4 d8) B4 | (c6 B2 A2 G2 F2 G2) | (A2 B2 c8 =B4) | %60
w: et tu- le-|runt cor\-||* * pus|e\- * * * * *||
 c4 c4 f8- | f4 f4 f4 f4 | g8 e4 f4- | f4 g4 d8 | G4 d4 e6 d2 | e4 f4 (d4 e4- | e2 f2 g8 ^f4 | %67
w: ius, ve- ne\-|* runt et tu-|le- runt cor\-|* pus e-|ius, et po- su-|e- runt il\- *||
 g8) d8 | z4 A4 d6 c2 | d4 B4 (c4 d4- | d2 c2 B2 A2 B4 c4) | (A4 B6 c2 d4- | d4 ^c4) d8 | z16 | %74
w: * lud,|et po- su-|e- runt il\- *|||* * lud||
 z4 g4 f4 d4 | (f6 e2 d4 c4 | B4 A2 G2 A8) | G4 g4 f4 d4 | (f4 e6 d2 d4- | d4 c4) d8- | d8 g8 | %81
w: in mo- nu-|men\- * * *||to, in mo- nu-|men\- * * *|* * to,|* in|
 f4 d4 (f6 e2) | (d4 c2 B2 A8) | G8 z4 c4 | B4 G4 (g6 f2 | _e4 d4 c8) | =B16 |] %87
w: mo- nu- men\- *||to, in|mo- nu- men\- *||to.|
V:4
 z16 | z16 | z16 | z16 | z16 | z16 |[M:4/2] z16 | z16 | z16 | z16 | G,16 | G,8 F,8 | %12
w: ||||||||||Mis-|so He-|
 (B,6 A,2 G,2 F,2 G,4- | G,2 F,2 D,4 E,8) | D,4 F,4 G,6 A,2 | (B,4 A,6 G,2 G,4) | A,16 | z8 D,8 | %18
w: ro\- * * * *||des spi- cu- la-|to\- * * *|re|prae-|
 G,12 A,4 | B,4 C4 D8 | C4 A,4 B,4 C4 | D8 B,4 G,4 | (B,6 A,2 G,4 F,4) | E,8 D,8 | z16 | z8 A,8 | %26
w: ce- pit|am- pu- ta-|ri ca- put Jo-|an- nis Ba-|pti\- * * *|* stae,||ca-|
 B,4 C4 D8 | D,4 D,4 G,8- | G,4 A,4 B,4 C4 | D8 C4 A,4 | B,4 C4 D8 | C4 (B,8 A,2 G,2 | %32
w: put Jo- an-|nis, prae- ce\-|* pit am- pu-|ta- ri ca-|put Jo- an-|nis Ba\- * *|
 A,8) (G,4 F,4 | B,8) A,8 | z4 (D8 C4) | (B,6 A,G, F,4 G,4- | G,4) C,4 (D,8 | G,8) z4 G,4- | %38
w: * pti\- *|* stae|in *|car\- * * * *|* ce- re:|* quo|
 G,4 G,4 D8 | C4 C4 B,4 G,4 | D8 (C4 B,4-) | (B,2 A,2 F,4 G,8 | D,2 E,2 F,2 G,2 A,8) | D,8 z8 | %44
w: * au- di-|to, di- sci- pu-|li e\- *|||ius,|
 z16 | z8 z4 G,4- | G,4 G,4 B,8 | A,4 F,4 A,6 A,2 | A,4 (C8 B,2 A,2 | B,4 C8 B,2 A,2 | G,8) F,8 | %51
w: |quo|* au- di-|to, di- sci- pu-|li e\- * *||* ius|
 z16 | z16 | F,8 B,8- | B,4 B,4 B,4 B,4 | C8 A,8 | (B,12 A,2 G,2 | A,4 B,8) G,4 | %58
w: ||ve- ne\-|* runt, et tu-|le- runt|cor\- * *|* * pus|
 (A,6 G,2 F,2 G,2 A,2 B,2) | (C4 C,4 G,8) | C,8 z8 | z16 | z16 | z16 | z4 G,4 C6 B,2 | %65
w: e\- * * * * *||ius,||||et po- su-|
 C4 A,4 (B,4 C4- | C2 B,2 A,2 G,2 A,8) | G,16 | z16 | z8 z4 D,4 | G,6 F,2 G,4 E,4 | %71
w: e- runt il\- *||lud,||et|po- su- e- runt|
 (F,4 G,6 F,2 E,2 D,2 | E,8) D,8 | z4 D4 C4 A,4 | (B,4 G,4) D8 | z16 | z8 z4 C4 | B,4 G,4 (B,8 | %78
w: il\- * * * *|* lud,|in mo- nu-|men\- * to,||in|mo- nu- men\-|
 A,6 G,2 F,4 G,4 | E,8) D,8 | D,8 C,4 C,4 | D,16 | D,16 | z4 G,4 _E,4 C,4 | (G,6 F,2 _E,4 D,4 | %85
w: |* to,|in mo- nu-|men-|to,|in mo- nu-|men\- * * *|
 C,4 B,,4 C,8) | G,16 |] %87
w: |to.|

